X: 249
T: A Lovely Madness
R: reel
M: 4/4
K: Aminor
A,E (3EEE DEFD|EC (3CCC DCB,C|A,E (3EEE DEFD|EAA^G A2 AB|
cA (3AAA BAGB|A (3EEE FD (3DDD|DE (3EDD EDCB,|C2 B,c, A,3 B,:|
C2 EC GCEC|D2 FD ADFD|E2 GE cEGE|F2 AF dFAF|e3d cBAG|
AE (3EEE FD (3DDD|DE (3EDD EDCB,|C2 B,c, A,3 B,:|

